X: 34076
T: Reel De Montreal
R: reel
M: 4/4
K: Emajor
|:e4 bege|ebag agfe|B4 ceef|agge fbag|
e4 bege|ebag agfe|c4 cBGB|1 ceBG Aagf:|2 ceBG Aefg||
|:agfe c4|agfe B4|ceec effe|fggb agfe|
[1 c4 agfe|B4 Bcec|efef gffg|f4- fefg:|
[2 agfe c4|agfe B4|Bcec efef|gffg fbag||

